X: 0112
T: Downie's Humour - 8x40R
P: Jim's Reel
C: Nan Main
B: Miss Milligan's Miscellany v.1 #0112
B: Originally Ours v.1 p.171 #MMM-0112
Z: 2020 John Chambers <jc:trillian.mit.edu>
M: 4/4
L: 1/8
R: reel
K: G
%
dB |\
"G"GABc defg | "D"a2d'2 d'3c' | "G"b2g2 (3gag fg | "D"a2d2 d3d |\
"Am"cdef "D7"gabg | "E/A7"e2a2 a3g | "D"fgab "E/A7"c'bag | "F#/D7"fedc "G"B2d2 ||
"Em"[e2B2]g2 [e2B2]g2 | "D"fgaf d2gf | "Em"e2g2 e2g2 | "D"[d'6f6] d'2 |\
"C"e'2d'c' "G"d'2c'b | "D7"c'ba2 "G"b2g2 | "C"egc'e' "D7"d'2f2 | "G"[g6B6] :|
d2 |\
"Em"[e2B2]g2 [e2B2]g2 | "D"fgaf d2gf | "Em"e2g2 e2g2 | "D"[d'6f6] d'2 |\
"C"e'2d'c' "G"d'2c'b | "D7"c'ba2 "G"b2g2 | "C"egc'e' "D7"d'2f2 | "G"[g4B4] [g4B4] |]
